svgs/regular/table-layout.svg

<svg xmlns="http://www.w3.org/2000/svg" viewBox="0 0 512 512"><!--! Font Awesome Pro 6.6.0 by @fontawesome - https://fontawesome.com License - https://fontawesome.com/license (Commercial License) Copyright 2024 Fonticons, Inc. --><path d="M448 80c8.8 0 16 7.2 16 16l0 64L48 160l0-64c0-8.8 7.2-16 16-16l384 0zM48 416l0-208 96 0 0 224-80 0c-8.8 0-16-7.2-16-16zm144 16l0-224 272 0 0 208c0 8.8-7.2 16-16 16l-256 0zM64 32C28.7 32 0 60.7 0 96L0 416c0 35.3 28.7 64 64 64l384 0c35.3 0 64-28.7 64-64l0-320c0-35.3-28.7-64-64-64L64 32z"/></svg>

<svg xmlns="http://www.w3.org/2000/svg" viewBox="0 0 512 512"><!--! Font Awesome Pro 6.4.0 by @fontawesome - https://fontawesome.com License - https://fontawesome.com/license (Commercial License) Copyright 2023 Fonticons, Inc. --><path d="M448 80c8.8 0 16 7.2 16 16v64H48V96c0-8.8 7.2-16 16-16H448zM48 416V208h96V432H64c-8.8 0-16-7.2-16-16zm144 16V208H464V416c0 8.8-7.2 16-16 16H192zM64 32C28.7 32 0 60.7 0 96V416c0 35.3 28.7 64 64 64H448c35.3 0 64-28.7 64-64V96c0-35.3-28.7-64-64-64H64z"/></svg>
